X: 3
T: Come Up Stairs With Me  
M: 9/8
L: 1/8
K: G Major
R: slip jig
|: d |\ 
G2 c BAG B/c/dB | e>cA ABG FF/E/D | 
G2 c BAG B/c/dB | e>fg f<af g2 :|
|: a/g/ |\ 
fed d2 g ff/e/d | e>cA AB/A/G FED |
[1 fed d2 g fed | e>fg f<af g2 :|
[2 G2 c BAG Bcd | e2 g f<af g2 |]
